dist/assets/logo.svg

<svg width="126" height="23" viewBox="0 0 126 23" fill="none" xmlns="http://www.w3.org/2000/svg">
<path d="M13.328 9.264C14.288 9.568 15.04 10.08 15.584 10.8C16.128 11.504 16.4 12.376 16.4 13.416C16.4 14.888 15.824 16.024 14.672 16.824C13.536 17.608 11.872 18 9.68 18H0.992V1.2H9.2C11.248 1.2 12.816 1.592 13.904 2.376C15.008 3.16 15.56 4.224 15.56 5.568C15.56 6.384 15.36 7.112 14.96 7.752C14.576 8.392 14.032 8.896 13.328 9.264ZM4.856 4.128V8.088H8.72C9.68 8.088 10.408 7.92 10.904 7.584C11.4 7.248 11.648 6.752 11.648 6.096C11.648 5.44 11.4 4.952 10.904 4.632C10.408 4.296 9.68 4.128 8.72 4.128H4.856ZM9.392 15.072C10.416 15.072 11.184 14.904 11.696 14.568C12.224 14.232 12.488 13.712 12.488 13.008C12.488 11.616 11.456 10.92 9.392 10.92H4.856V15.072H9.392ZM25.2236 18.192C23.8636 18.192 22.6396 17.912 21.5516 17.352C20.4796 16.776 19.6396 15.984 19.0316 14.976C18.4236 13.968 18.1196 12.824 18.1196 11.544C18.1196 10.264 18.4236 9.12 19.0316 8.112C19.6396 7.104 20.4796 6.32 21.5516 5.76C22.6396 5.184 23.8636 4.896 25.2236 4.896C26.5836 4.896 27.7996 5.184 28.8716 5.76C29.9436 6.32 30.7836 7.104 31.3916 8.112C31.9996 9.12 32.3036 10.264 32.3036 11.544C32.3036 12.824 31.9996 13.968 31.3916 14.976C30.7836 15.984 29.9436 16.776 28.8716 17.352C27.7996 17.912 26.5836 18.192 25.2236 18.192ZM25.2236 15.12C26.1836 15.12 26.9676 14.8 27.5756 14.16C28.1996 13.504 28.5116 12.632 28.5116 11.544C28.5116 10.456 28.1996 9.592 27.5756 8.952C26.9676 8.296 26.1836 7.968 25.2236 7.968C24.2636 7.968 23.4716 8.296 22.8476 8.952C22.2236 9.592 21.9116 10.456 21.9116 11.544C21.9116 12.632 22.2236 13.504 22.8476 14.16C23.4716 14.8 24.2636 15.12 25.2236 15.12ZM40.9501 18.192C39.5901 18.192 38.3661 17.912 37.2781 17.352C36.2061 16.776 35.3661 15.984 34.7581 14.976C34.1501 13.968 33.8461 12.824 33.8461 11.544C33.8461 10.264 34.1501 9.12 34.7581 8.112C35.3661 7.104 36.2061 6.32 37.2781 5.76C38.3661 5.184 39.5901 4.896 40.9501 4.896C42.3101 4.896 43.5261 5.184 44.5981 5.76C45.6701 6.32 46.5101 7.104 47.1181 8.112C47.7261 9.12 48.0301 10.264 48.0301 11.544C48.0301 12.824 47.7261 13.968 47.1181 14.976C46.5101 15.984 45.6701 16.776 44.5981 17.352C43.5261 17.912 42.3101 18.192 40.9501 18.192ZM40.9501 15.12C41.9101 15.12 42.6941 14.8 43.3021 14.16C43.9261 13.504 44.2381 12.632 44.2381 11.544C44.2381 10.456 43.9261 9.592 43.3021 8.952C42.6941 8.296 41.9101 7.968 40.9501 7.968C39.9901 7.968 39.1981 8.296 38.5741 8.952C37.9501 9.592 37.6381 10.456 37.6381 11.544C37.6381 12.632 37.9501 13.504 38.5741 14.16C39.1981 14.8 39.9901 15.12 40.9501 15.12ZM56.0767 12.936L54.2767 14.712V18H50.5327V0.191999H54.2767V10.272L59.7487 5.088H64.2127L58.8367 10.56L64.6927 18H60.1567L56.0767 12.936ZM70.2986 18.192C69.2266 18.192 68.1786 18.064 67.1546 17.808C66.1306 17.536 65.3146 17.2 64.7066 16.8L65.9546 14.112C66.5306 14.48 67.2266 14.784 68.0426 15.024C68.8586 15.248 69.6586 15.36 70.4426 15.36C72.0266 15.36 72.8186 14.968 72.8186 14.184C72.8186 13.816 72.6026 13.552 72.1706 13.392C71.7386 13.232 71.0746 13.096 70.1786 12.984C69.1226 12.824 68.2506 12.64 67.5626 12.432C66.8746 12.224 66.2746 11.856 65.7626 11.328C65.2666 10.8 65.0186 10.048 65.0186 9.072C65.0186 8.256 65.2506 7.536 65.7146 6.912C66.1946 6.272 66.8826 5.776 67.7786 5.424C68.6906 5.072 69.7626 4.896 70.9946 4.896C71.9066 4.896 72.8106 5 73.7066 5.208C74.6186 5.4 75.3706 5.672 75.9626 6.024L74.7146 8.688C73.5786 8.048 72.3386 7.728 70.9946 7.728C70.1946 7.728 69.5946 7.84 69.1946 8.064C68.7946 8.288 68.5946 8.576 68.5946 8.928C68.5946 9.328 68.8106 9.608 69.2426 9.768C69.6746 9.928 70.3626 10.08 71.3066 10.224C72.3626 10.4 73.2266 10.592 73.8986 10.8C74.5706 10.992 75.1546 11.352 75.6506 11.88C76.1466 12.408 76.3946 13.144 76.3946 14.088C76.3946 14.888 76.1546 15.6 75.6746 16.224C75.1946 16.848 74.4906 17.336 73.5626 17.688C72.6506 18.024 71.5626 18.192 70.2986 18.192ZM86.5526 4.896C88.1526 4.896 89.4406 5.376 90.4166 6.336C91.4086 7.296 91.9046 8.72 91.9046 10.608V18H88.1606V11.184C88.1606 10.16 87.9366 9.4 87.4886 8.904C87.0406 8.392 86.3926 8.136 85.5446 8.136C84.6006 8.136 83.8486 8.432 83.2886 9.024C82.7286 9.6 82.4486 10.464 82.4486 11.616V18H78.7046V0.191999H82.4486V6.432C82.9446 5.936 83.5446 5.56 84.2486 5.304C84.9526 5.032 85.7206 4.896 86.5526 4.896ZM101.583 18.192C100.223 18.192 98.9989 17.912 97.9109 17.352C96.8389 16.776 95.9989 15.984 95.3909 14.976C94.7829 13.968 94.4789 12.824 94.4789 11.544C94.4789 10.264 94.7829 9.12 95.3909 8.112C95.9989 7.104 96.8389 6.32 97.9109 5.76C98.9989 5.184 100.223 4.896 101.583 4.896C102.943 4.896 104.159 5.184 105.231 5.76C106.303 6.32 107.143 7.104 107.751 8.112C108.359 9.12 108.663 10.264 108.663 11.544C108.663 12.824 108.359 13.968 107.751 14.976C107.143 15.984 106.303 16.776 105.231 17.352C104.159 17.912 102.943 18.192 101.583 18.192ZM101.583 15.12C102.543 15.12 103.327 14.8 103.935 14.16C104.559 13.504 104.871 12.632 104.871 11.544C104.871 10.456 104.559 9.592 103.935 8.952C103.327 8.296 102.543 7.968 101.583 7.968C100.623 7.968 99.8309 8.296 99.2069 8.952C98.5829 9.592 98.2709 10.456 98.2709 11.544C98.2709 12.632 98.5829 13.504 99.2069 14.16C99.8309 14.8 100.623 15.12 101.583 15.12ZM118.798 4.896C119.998 4.896 121.086 5.176 122.062 5.736C123.054 6.28 123.83 7.056 124.39 8.064C124.95 9.056 125.23 10.216 125.23 11.544C125.23 12.872 124.95 14.04 124.39 15.048C123.83 16.04 123.054 16.816 122.062 17.376C121.086 17.92 119.998 18.192 118.798 18.192C117.15 18.192 115.854 17.672 114.91 16.632V22.656H111.166V5.088H114.742V6.576C115.67 5.456 117.022 4.896 118.798 4.896ZM118.15 15.12C119.11 15.12 119.894 14.8 120.502 14.16C121.126 13.504 121.438 12.632 121.438 11.544C121.438 10.456 121.126 9.592 120.502 8.952C119.894 8.296 119.11 7.968 118.15 7.968C117.19 7.968 116.398 8.296 115.773 8.952C115.166 9.592 114.862 10.456 114.862 11.544C114.862 12.632 115.166 13.504 115.773 14.16C116.398 14.8 117.19 15.12 118.15 15.12Z" fill="#1C2A39"/>
</svg>

<svg width="126" height="23" fill="none" xmlns="http://www.w3.org/2000/svg"><path d="M13.328 9.264c.96.304 1.712.816 2.256 1.536.544.704.816 1.576.816 2.616 0 1.472-.576 2.608-1.728 3.408-1.136.784-2.8 1.176-4.992 1.176H.992V1.2H9.2c2.048 0 3.616.392 4.704 1.176 1.104.784 1.656 1.848 1.656 3.192 0 .816-.2 1.544-.6 2.184-.384.64-.928 1.144-1.632 1.512ZM4.856 4.128v3.96H8.72c.96 0 1.688-.168 2.184-.504.496-.336.744-.832.744-1.488s-.248-1.144-.744-1.464c-.496-.336-1.224-.504-2.184-.504H4.856Zm4.536 10.944c1.024 0 1.792-.168 2.304-.504.528-.336.792-.856.792-1.56 0-1.392-1.032-2.088-3.096-2.088H4.856v4.152h4.536Zm15.832 3.12c-1.36 0-2.584-.28-3.672-.84a6.439 6.439 0 0 1-2.52-2.376c-.608-1.008-.912-2.152-.912-3.432 0-1.28.304-2.424.912-3.432a6.27 6.27 0 0 1 2.52-2.352c1.088-.576 2.312-.864 3.672-.864 1.36 0 2.576.288 3.648.864a6.27 6.27 0 0 1 2.52 2.352c.608 1.008.912 2.152.912 3.432 0 1.28-.304 2.424-.912 3.432a6.439 6.439 0 0 1-2.52 2.376c-1.072.56-2.288.84-3.648.84Zm0-3.072c.96 0 1.744-.32 2.352-.96.624-.656.936-1.528.936-2.616s-.312-1.952-.936-2.592c-.608-.656-1.392-.984-2.352-.984s-1.752.328-2.376.984c-.624.64-.936 1.504-.936 2.592s.312 1.96.936 2.616c.624.64 1.416.96 2.376.96Zm15.726 3.072c-1.36 0-2.584-.28-3.672-.84a6.439 6.439 0 0 1-2.52-2.376c-.608-1.008-.912-2.152-.912-3.432 0-1.28.304-2.424.912-3.432a6.27 6.27 0 0 1 2.52-2.352c1.088-.576 2.312-.864 3.672-.864 1.36 0 2.576.288 3.648.864a6.27 6.27 0 0 1 2.52 2.352c.608 1.008.912 2.152.912 3.432 0 1.28-.304 2.424-.912 3.432a6.439 6.439 0 0 1-2.52 2.376c-1.072.56-2.288.84-3.648.84Zm0-3.072c.96 0 1.744-.32 2.352-.96.624-.656.936-1.528.936-2.616s-.312-1.952-.936-2.592c-.608-.656-1.392-.984-2.352-.984s-1.752.328-2.376.984c-.624.64-.936 1.504-.936 2.592s.312 1.96.936 2.616c.624.64 1.416.96 2.376.96Zm15.127-2.184-1.8 1.776V18h-3.744V.192h3.744v10.08l5.472-5.184h4.464l-5.376 5.472L64.693 18h-4.536l-4.08-5.064Zm14.222 5.256c-1.072 0-2.12-.128-3.144-.384-1.024-.272-1.84-.608-2.448-1.008l1.248-2.688c.576.368 1.272.672 2.088.912a9.042 9.042 0 0 0 2.4.336c1.584 0 2.376-.392 2.376-1.176 0-.368-.216-.632-.648-.792-.432-.16-1.096-.296-1.992-.408-1.056-.16-1.928-.344-2.616-.552a4.142 4.142 0 0 1-1.8-1.104c-.496-.528-.744-1.28-.744-2.256 0-.816.232-1.536.696-2.16.48-.64 1.168-1.136 2.064-1.488.912-.352 1.984-.528 3.216-.528.912 0 1.816.104 2.712.312.912.192 1.664.464 2.256.816l-1.248 2.664a7.45 7.45 0 0 0-3.72-.96c-.8 0-1.4.112-1.8.336-.4.224-.6.512-.6.864 0 .4.216.68.648.84.432.16 1.12.312 2.064.456 1.056.176 1.92.368 2.592.576a3.802 3.802 0 0 1 1.752 1.08c.496.528.744 1.264.744 2.208 0 .8-.24 1.512-.72 2.136-.48.624-1.184 1.112-2.112 1.464-.912.336-2 .504-3.264.504ZM86.553 4.896c1.6 0 2.888.48 3.864 1.44.992.96 1.488 2.384 1.488 4.272V18H88.16v-6.816c0-1.024-.224-1.784-.672-2.28-.448-.512-1.096-.768-1.944-.768-.944 0-1.696.296-2.256.888-.56.576-.84 1.44-.84 2.592V18h-3.744V.192h3.744v6.24a4.85 4.85 0 0 1 1.8-1.128 6.34 6.34 0 0 1 2.304-.408Zm15.03 13.296c-1.36 0-2.584-.28-3.672-.84a6.439 6.439 0 0 1-2.52-2.376c-.608-1.008-.912-2.152-.912-3.432 0-1.28.304-2.424.912-3.432a6.27 6.27 0 0 1 2.52-2.352c1.088-.576 2.312-.864 3.672-.864 1.36 0 2.576.288 3.648.864a6.27 6.27 0 0 1 2.52 2.352c.608 1.008.912 2.152.912 3.432 0 1.28-.304 2.424-.912 3.432a6.439 6.439 0 0 1-2.52 2.376c-1.072.56-2.288.84-3.648.84Zm0-3.072c.96 0 1.744-.32 2.352-.96.624-.656.936-1.528.936-2.616s-.312-1.952-.936-2.592c-.608-.656-1.392-.984-2.352-.984s-1.752.328-2.376.984c-.624.64-.936 1.504-.936 2.592s.312 1.96.936 2.616c.624.64 1.416.96 2.376.96Zm17.215-10.224c1.2 0 2.288.28 3.264.84a5.821 5.821 0 0 1 2.328 2.328c.56.992.84 2.152.84 3.48 0 1.328-.28 2.496-.84 3.504a6.028 6.028 0 0 1-2.328 2.328c-.976.544-2.064.816-3.264.816-1.648 0-2.944-.52-3.888-1.56v6.024h-3.744V5.088h3.576v1.488c.928-1.12 2.28-1.68 4.056-1.68Zm-.648 10.224c.96 0 1.744-.32 2.352-.96.624-.656.936-1.528.936-2.616s-.312-1.952-.936-2.592c-.608-.656-1.392-.984-2.352-.984s-1.752.328-2.377.984c-.607.64-.911 1.504-.911 2.592s.304 1.96.911 2.616c.625.64 1.417.96 2.377.96Z" fill="#1C2A39"/></svg>
